X:1
T:Overland Park, 86.86.88.86
T:Charles Groenendyke, 1898
T:Overland Park, 86.86.88.86
T:Public Domain
C:Charles Groenendyke, 1898
Z:Public Domain
%%score ( 1 2 ) ( 3 4 )
L:1/8
M:4/4
K:G
V:1 treble 
V:2 treble 
V:3 bass 
V:4 bass 
V:1
 D2 | [GB]3 [GB] [GB]2 [GB]2 | [EA]2 [EG]2 [CE]4 | [B,D]3 [DG] [DG]2 [GB]2 | [GB]4 [FA]2 [Ac]2 | %5
 [GB]3 [GB] [GB]2 [GB]2 | [EA]2 [EG]2 [CE]4 | [B,D]3 [DG] [GB]2 [FA]2 | [FA]4 G2 [GB]2 | %9
 [Gd]3 [Gd] (ed)([Ac][GB]) | [FA]2 [GB]2 [Fc]2 D2 | [Ac]3 [Ac] ([Bd][Ac])([GB][FA]) | %12
 G2 [FA]2 [GB]2 D2 | [GB]3 [GB] [GB]2 [GB]2 | [EA]2 [EG]2 [CE]4 | [B,D]3 [DG] [GB]2 [FA]2 | %16
 [FA]4 G2 |] %17
V:2
 D2 | x8 | x8 | x8 | x8 | x8 | x8 | x8 | x4 G2 x2 | x4 G2 x2 | x6 D2 | x8 | G2 x2 D2 x2 | x8 | x8 | %15
 x8 | x4 G2 |] %17
V:3
 [G,B,]2 | [G,D]3 [G,D] [G,D]2 [G,D]2 | [C,C]2 [C,C]2 [C,G,]4 | G,3 [G,B,] [G,B,]2 [G,D]2 | %4
 [D,D]4 [D,D]2 [D,D]2 | [G,D]3 [G,D] [G,D]2 [G,D]2 | [C,C]2 [C,C]2 [C,G,]4 | %7
 [D,G,]3 [D,B,] [D,D]2 [D,D]2 | [D,C]4 [G,B,]2 [G,B,]2 | [G,B,]3 [G,B,] (CB,) [G,D]2 | %10
 [D,D]2 [D,D]2 [D,D]2 [D,D]2 | [D,D]3 [D,D] [D,D]2 (DC) | [E,B,]2 [D,D]2 [G,D]2 [G,B,]2 | %13
 [G,D]3 [G,D] [G,D]2 [G,D]2 | [C,C]2 [C,C]2 [C,G,]4 | [D,G,]3 [D,B,] [D,D]2 [D,D]2 | %16
 [D,C]4 [G,B,]2 |] %17
V:4
 x2 | x8 | x8 | G,3 x5 | x8 | x8 | x8 | x8 | x8 | x4 G,2 x2 | x8 | x6 D,2 | x8 | x8 | x8 | x8 | %16
 x6 |] %17

